material/.icons/material/language-r.svg

<svg xmlns="http://www.w3.org/2000/svg" viewBox="0 0 24 24"><path d="M12 4.29c-5.5 0-10 3-10 6.71 0 3.28 3.56 6 8.24 6.58v2.13h3.41v-2.12c.85-.09 1.64-.25 2.39-.48l1.38 2.6h3.86l-2.32-3.91C20.83 14.58 22 12.87 22 11c0-3.71-4.5-6.71-10-6.71m1.53 2.62c4.2 0 7.3 1.4 7.3 4.59 0 1.71-.92 2.91-2.42 3.65-.09-.05-.17-.1-.22-.15-.36-.16-.96-.34-.96-.34s2.98-.22 2.98-3.19c0-2.97-3.12-3.02-3.12-3.02h-6.85v7.16c-2.55-.74-4.31-2.31-4.31-4.11 0-2.54 3.4-4.59 7.6-4.59m.15 3.98h2.07s.95-.05.95.94c0 .97-.95.97-.95.97h-2.07v-1.91m-.03 4.41h.92c.18 0 .27.05.43.2.13.1.27.29.39.46-.55.07-1.13.1-1.74.1v-.76z"/></svg>

<?xml version="1.0" encoding="UTF-8"?><!DOCTYPE svg PUBLIC "-//W3C//DTD SVG 1.1//EN" "http://www.w3.org/Graphics/SVG/1.1/DTD/svg11.dtd"><svg xmlns="http://www.w3.org/2000/svg" xmlns:xlink="http://www.w3.org/1999/xlink" version="1.1" id="mdi-language-r" width="24" height="24" viewBox="0 0 24 24"><path d="M12,4.29C6.5,4.29 2,7.29 2,11C2,14.28 5.56,17 10.24,17.58V19.71H13.65V17.59C14.5,17.5 15.29,17.34 16.04,17.11L17.42,19.71H21.28L18.96,15.8C20.83,14.58 22,12.87 22,11C22,7.29 17.5,4.29 12,4.29V4.29M13.53,6.91C17.73,6.91 20.83,8.31 20.83,11.5C20.83,13.21 19.91,14.41 18.41,15.15C18.32,15.1 18.24,15.05 18.19,15C17.83,14.84 17.23,14.66 17.23,14.66C17.23,14.66 20.21,14.44 20.21,11.47C20.21,8.5 17.09,8.45 17.09,8.45H10.24V15.61C7.69,14.87 5.93,13.3 5.93,11.5C5.93,8.96 9.33,6.91 13.53,6.91M13.68,10.89H15.75C15.75,10.89 16.7,10.84 16.7,11.83C16.7,12.8 15.75,12.8 15.75,12.8H13.68V10.89M13.65,15.3H14.57C14.75,15.3 14.84,15.35 15,15.5C15.13,15.6 15.27,15.79 15.39,15.96C14.84,16.03 14.26,16.06 13.65,16.06V15.3Z" /></svg>
